!!!OTL-incipit: IN EINEM KUEHLEN GRUNDE, DA GEHT EIN MUEHLENRAD
!!!ARE: Europa, Mitteleuropa, Deutschland
!!!SCT: Z0213
!!!TXL: @@DE
!!!YEM: Copyright 1995, estate of Helmut Schaffrath.
**kern	**text
*ICvox	*
*M6/8	*
*k[b-e-]	*
*B-:	*
!LO:TX:a:t=Altdeutſch.	!
{8f	Jn
=1	=1
4dd	ei-
8dd	-nem
(8ddL	küh-
8ccJ)	.
8dd	-len
=2	=2
(4ee-	Grun-
8cc)	.
4a}	-de,
{8f	da
=3	=3
4b-/	geht
8b-/	ein
(8b-/L	Müh-
8aJ)	.
8b-/	-len-
=4	=4
[4.cc	-rad,
8cc]	.
8r}	.
{8cc	mein
=5	=5
4cc	Lieb-
8cc	-chen
8ccL	iſt
8ddJ	.
8ee-	ver-
=6	=6
4.ff	-ſchwun-
4g}	-den,
{8cc	das
=7	=7
4b-	dort
8b-	ge-
(8ccL	-woh-
8b-J)	.
8cc	-net
=8	=8
[4.dd	hat,
8dd]	.
8r}	.
{8dd	mein
=9	=9
(8ddL	Lieb-
8ccJ)	.
8cc	-chen
(8ccL	iſt
8ddJ)	.
8ee-	ver-
=10	=10
(4ff	-ſchwun-
8bb-)	.
(8ggL	-den,
8ee-J)}	.
{8cc	das
=11	=11
4b-	dort
8b-	ge-
4dd	-woh-
8cc	-net
=12	=12
[4.b-	hat.
8b-]	.
8r}	.
==	==
!!!AGN: Romanze
!! "Altdeutsch" (Falsch! vgl. Eichendorff/Silcher!)
!!!ONB: ESAC (Essen Associative Code) Database: ZUCCAL
!!!AMT: compound duple
!!!AIN: vox
!!!EED: Helmut Schaffrath
!!!EEV: 1.0
!!!GTL: III. Soldaten-, Jaeger-, Schiffer-, Fuhrmanns- und Handwerks-Lieder.
!!!URL-scan: https://www.digitale-sammlungen.de/de/view/bsb11160571?page=397
!!!ENC: Anna Maria Matuszewska
!!!EEV: 2025/01/29
*-	*-
